icons/git-dark.svg

<svg width="256" height="256" viewBox="0 0 256 256" fill="none" xmlns="http://www.w3.org/2000/svg">
<path d="M196 0H60C26.8629 0 0 26.8629 0 60V196C0 229.137 26.8629 256 60 256H196C229.137 256 256 229.137 256 196V60C256 26.8629 229.137 0 196 0Z" fill="#282828"/>
<path d="M223.295 119.23L136.838 32.7376C135.655 31.5526 134.249 30.6127 132.702 29.9714C131.155 29.33 129.496 29 127.822 29C126.148 29 124.489 29.33 122.942 29.9714C121.395 30.6127 119.989 31.5526 118.806 32.7376L100.86 50.6911L123.633 73.4735C128.93 71.6162 134.995 72.8853 139.214 77.1075C141.223 79.1209 142.626 81.6591 143.262 84.432C143.898 87.2049 143.741 90.1009 142.81 92.789L164.76 114.748C170.07 112.916 176.196 114.097 180.434 118.351C181.844 119.761 182.962 121.435 183.725 123.278C184.487 125.12 184.879 127.094 184.879 129.088C184.878 131.082 184.486 133.056 183.723 134.899C182.959 136.74 181.841 138.414 180.431 139.824C179.022 141.234 177.349 142.352 175.508 143.114C173.666 143.878 171.693 144.27 169.699 144.269C167.706 144.269 165.732 143.876 163.891 143.113C162.05 142.35 160.376 141.231 158.967 139.821C154.512 135.363 153.411 128.801 155.663 123.309L135.193 102.83V156.722C136.679 157.457 138.036 158.428 139.214 159.595C140.623 161.004 141.741 162.677 142.505 164.52C143.267 166.361 143.659 168.335 143.659 170.329C143.659 172.323 143.267 174.297 142.505 176.139C141.741 177.981 140.623 179.655 139.214 181.065C137.806 182.474 136.132 183.593 134.292 184.355C132.45 185.118 130.477 185.511 128.484 185.511C126.491 185.511 124.518 185.118 122.677 184.355C120.836 183.593 119.162 182.474 117.753 181.065C116.343 179.655 115.224 177.982 114.46 176.141C113.696 174.298 113.303 172.323 113.303 170.329C113.303 168.335 113.696 166.361 114.46 164.519C115.224 162.676 116.343 161.003 117.753 159.595C119.22 158.134 120.848 157.025 122.723 156.282V101.889C120.916 101.146 119.22 100.051 117.753 98.5774C115.623 96.4483 114.174 93.7326 113.592 90.7766C113.011 87.8205 113.322 84.7581 114.486 81.9797L92.0228 59.5193L32.739 118.766C31.5537 119.951 30.6134 121.357 29.9718 122.905C29.3302 124.454 29 126.113 29 127.789C29 129.465 29.3302 131.125 29.9718 132.673C30.6134 134.221 31.5537 135.628 32.739 136.812L119.202 223.298C120.385 224.483 121.791 225.423 123.338 226.065C124.885 226.706 126.544 227.036 128.218 227.036C129.892 227.036 131.551 226.706 133.098 226.065C134.645 225.423 136.051 224.483 137.234 223.298L223.295 137.338C224.48 136.154 225.421 134.747 226.062 133.199C226.704 131.651 227.034 129.992 227.034 128.316C227.034 126.64 226.704 124.979 226.062 123.431C225.421 121.883 224.48 120.476 223.295 119.292" fill="#F1502F"/>
</svg>

<svg xmlns="http://www.w3.org/2000/svg" width="256" height="256" fill="none"><path fill="#282828" d="M196 0H60C26.863 0 0 26.863 0 60v136c0 33.137 26.863 60 60 60h136c33.137 0 60-26.863 60-60V60c0-33.137-26.863-60-60-60"/><path fill="#F1502F" d="m223.295 119.23-86.457-86.492A12.74 12.74 0 0 0 127.822 29a12.74 12.74 0 0 0-9.016 3.738L100.86 50.69l22.773 22.783c5.297-1.858 11.362-.589 15.581 3.633a15.17 15.17 0 0 1 3.596 15.682l21.95 21.959c5.31-1.832 11.436-.651 15.674 3.603a15.18 15.18 0 0 1 4.445 10.737 15.2 15.2 0 0 1-1.156 5.811 15.2 15.2 0 0 1-3.292 4.925 15.2 15.2 0 0 1-4.923 3.29 15.17 15.17 0 0 1-16.541-3.293c-4.455-4.458-5.556-11.02-3.304-16.512l-20.47-20.479v53.892a15.4 15.4 0 0 1 4.021 2.873 15.2 15.2 0 0 1 3.291 4.925 15.19 15.19 0 0 1-8.213 19.835 15.175 15.175 0 0 1-19.832-8.214 15.18 15.18 0 0 1 3.293-16.546c1.467-1.461 3.095-2.57 4.97-3.313v-54.393a15.1 15.1 0 0 1-4.97-3.312 15.175 15.175 0 0 1-3.267-16.597L92.023 59.52l-59.284 59.246A12.76 12.76 0 0 0 29 127.789a12.76 12.76 0 0 0 3.739 9.023l86.463 86.486a12.75 12.75 0 0 0 9.016 3.738 12.75 12.75 0 0 0 9.016-3.738l86.061-85.96a12.75 12.75 0 0 0 3.739-9.022 12.76 12.76 0 0 0-3.739-9.024"/></svg>
